X:1
T:Title
%%score [ ( 1 2 ) ( 3 4 ) ]
L:1/8
Q:1/4=180
M:3/2
K:C
V:1 treble nm="SA" snm="SA"
V:2 treble 
V:3 bass nm="TB" snm="TB"
V:4 bass 
V:1
"^Hymn to St. Joseph""^Franz Xaver Witt\n(1834-1888)""^Te Joseph celebrent" c4 c4 c4 | c6 B2 A4 | %2
w: Te Jo- seph|ce- le- brent|
w: Al- mo cum|tu- mi- dam|
w: Tu na- tum|Do- mi- num|
w: ~No- bis Sum-|ma Tri- as|
 c6 c2 d4 | e6 e2 e4 | e4 e4 e4 | d6 d2 d4 | c6 c2 c4 | c6 B2 B4 | c4 c4 c4 | A6 A2 A4 | d6 d2 d4 | %11
w: ag- mi- *|coe- li- tum|te cun- cti|re- so- nent|Chri- sti a|dum cho- ri|qui cla- rus|me- ri- tis|jun- ctus es|
w: ger- mi- *|con- ju- gem|ad- mi- rans|du- bi- o|tan- ge- ris|an- xi- us,|af- fla- tu|su- pe- ri|fla- mi- nis|
w: strin- gis *|dex- te- ras,|Ae- gy- pti|pro- fu- gum|tu se- que-|ris pla- gas:|a- mis- sum|So- ly- mis|quae- ris et|
w: par- ce *|can- ti- bus:|da Jo- seph|me- ri- tis|si- de- ra|scan- de- re,|ut tan- dem|li- ce- at|nos ti- bi|
 c6 c2 c4 | f8 f4 | e6 e2 d4 | d8 d4 | c12 || [Ac]12 | [Gc]12 |] %18
w: in- cly- tae|cas- to|foe- de- re|* gi-|ni.|A-|men.|
w: an- ge- lus|con- ce-|ptum pu- e-|* do-|cet.|||
w: in- ve- nis,|mi- scens|gau- di- a|* ti-|bus.|||
w: per- pe- tim,|gra- tum|pro- me- re|* ti-|cum.|||
V:2
 G4 G4 G4 | G6 G2 G4 | E6 A2 A4 | B6 B2 B4 | c4 c4 c4 | A6 A2 B4 | G6 G2 A4 | G6 G2 G4 | G4 G4 G4 | %9
w: |||||||||
w: |||||||||
w: |||||||||
w: |||||||||
 A6 A2 A4 | A6 A2 B4 | c6 c2 c4 | c8 d4 | c6 c2 c4 | (c4 B2 A2) B4 | c12 || x12 | x12 |] %18
w: |||||Vir\- * * *||||
w: |||||rum * * *||||
w: |||||fle\- * * *||||
w: |||||can\- * * *||||
V:3
 E,4 E,4 E,4 | E,6 D,2 D,4 | C,6 E,2 (F,2 A,2) | A,6 ^G,2 G,4 | G,4 G,4 A,4 | A,6 A,2 G,4 | %6
w: ||* * na *||||
w: ||* * ne *||||
w: ||* * ad *||||
w: ||* * pre\- *||||
 G,6 G,2 ^F,4 | D,6 D,2 D,4 | E,4 E,4 G,4 | F,6 F,2 F,4 | A,6 A,2 G,4 | A,6 A,2 A,4 | A,8 A,4 | %13
w: |||||||
w: |||||||
w: |||||||
w: |||||||
 G,6"^4) Nobis Summa Trias parce precantibus:\nda Joseph meritis sidera scandere,\nut tandem liceat at nos tibi perpetim,\ngratum promere canticum.\nAMEN" G,2 A,4 | %14
w: |
w: |
w: |
w: |
 G,8 G,4 | C,12 || [F,,F,]12 | [C,E,]12 |] %18
w: ||||
w: ||||
w: ||||
w: ||||
V:4
 C,4 C,4 C,4 | G,,6 G,,2 G,,4 | A,,6 A,,2 F,4 | E,6 E,2 E,4 | C,4 C,4 A,4 | ^F,6 F,2 G,4 | %6
 E,6 E,2 D,4 | G,,6 G,,2 G,,4 | E,4 E,4 E,4 | F,6 F,2 F,4 | F,6 F,2 G,4 | A,6 A,2 A,4 | A,,8 B,,4 | %13
 C,6 C,2 F,4 | x4 x4 G,,4 | x12 || x12 | x12 |] %18

